X:19003
T:Sally Gardens, Down by the
T:Maids of the Mourne Shore
R:Reel
C:Trad.
A:William Butler Yeats, 1889
O:Ireland
M:2/2
L:1/8
Q:1/2=50
K:C
(CD)|"C"E2(DC) "G"D2(EG)|"F"A4 "C"G2(cG)|"F"A2(GE) "G"D3C|"C"C4 z2(CD)|
"C"E2(DC) "G"D2(EG)|"F"A4 "C"G2(cG)|"F"A2(GE) "G"D3C|"C"C4 z2G2|
"Em"c2(BG) "Am"A2c2|"G"B4 "C"G2EG|"F"A2(GE) ("D"GA)(cd)|"C"c4 z2(CD)|
"C"E2DC "G"D2(EG)|"F"A4 "C"G2(cG)|"F"A2(GE) "G"D3C|"C"C4 z2|]

